icons/linear-new-office-doc-document-eye.svg

<svg xmlns="http://www.w3.org/2000/svg" width="32px" height="32px" viewBox="0 0 32 32" version="1.1">
    <title>linear-new-office-doc-document-eye</title>
    <g id="linear-new-office-doc-document-eye" stroke-width="1" fill-rule="evenodd">
        <path d="M22,19.5 C24.8432617,19.5 27.3871109,21.1467687 29.6315477,24.4403061 C29.86253,24.7778892 29.86253,25.2221108 29.6331504,25.5607794 C27.3871109,28.8532313 24.8432617,30.5 22,30.5 C19.1567383,30.5 16.6128891,28.8532313 14.3684523,25.5596939 C14.13747,25.2221108 14.13747,24.7778892 14.3668496,24.4392206 C16.6128891,21.1467687 19.1567383,19.5 22,19.5 Z M27,2 C27.5522847,2 28,2.44771525 28,3 L28.0007481,19.6827563 C26.1821066,18.2456712 24.176818,17.5 22,17.5 C18.4201057,17.5 15.3038706,19.5166544 12.714672,23.3121407 C12.0212123,24.3359825 12.0225817,25.6729376 12.7178478,26.6890764 C13.6196731,28.0124375 14.5861643,29.1196618 15.614465,30.0004984 L5,30 C4.44771525,30 4,29.5522847 4,29 L4,3 C4,2.44771525 4.44771525,2 5,2 L27,2 Z M22,23.5 C21.1715729,23.5 20.5,24.1715729 20.5,25 C20.5,25.8284271 21.1715729,26.5 22,26.5 C22.8284271,26.5 23.5,25.8284271 23.5,25 C23.5,24.1715729 22.8284271,23.5 22,23.5 Z M15,14 L11,14 C10.4477153,14 10,14.4477153 10,15 C10,15.5522847 10.4477153,16 11,16 L15,16 C15.5522847,16 16,15.5522847 16,15 C16,14.4477153 15.5522847,14 15,14 Z M21,8 L11,8 C10.4477153,8 10,8.44771525 10,9 C10,9.55228475 10.4477153,10 11,10 L21,10 C21.5522847,10 22,9.55228475 22,9 C22,8.44771525 21.5522847,8 21,8 Z" id="&#24418;&#29366;" />
    </g>
</svg>

<svg xmlns="http://www.w3.org/2000/svg" viewBox="0 0 32 32"><path fill="currentColor" d="M22 19.5c2.843 0 5.387 1.647 7.632 4.94a.995.995 0 0 1 .001 1.12c-2.246 3.293-4.79 4.94-7.633 4.94s-5.387-1.647-7.632-4.94a.995.995 0 0 1-.001-1.12c2.246-3.293 4.79-4.94 7.633-4.94M27 2a1 1 0 0 1 1 1v16.683c-1.818-1.437-3.823-2.183-6-2.183-3.58 0-6.696 2.017-9.285 5.812a2.998 2.998 0 0 0 .003 3.377c.902 1.323 1.868 2.43 2.896 3.311H5a1 1 0 0 1-1-1V3a1 1 0 0 1 1-1zm-5 21.5a1.5 1.5 0 1 0 0 3 1.5 1.5 0 0 0 0-3M15 14h-4a1 1 0 0 0 0 2h4a1 1 0 0 0 0-2m6-6H11a1 1 0 0 0 0 2h10a1 1 0 0 0 0-2"/></svg>
